!!!OTL: Renren xixinjian
!!!ARE: Asia, China,ÿNingxia Yenchuan
!! I, 171
!!!SCT: C1837
!!!YEM: Copyright 1995, estate of Helmut Schaffrath.
**kern
*ICvox
*Ivox
!! Mixed meters:  2/4; 3/4
*M2/4
*k[b-]
*F:
{8.dd
16dd
8cc
8dd
=1
8ff
16ff
16a
[4cc
=2
8cc]
8ff
16cc
16dd
16cc
16a
=3
*M3/4
16g
16f
16g
16a
8.cc
16dd
4cc}
=4
*M2/4
{8.dd
16dd
8cc
8dd
=5
8cc
16dd
16ff
16dd
16cc
8a
=6
4.g
8a
=7
16g
16a
16g
16f
8d
8f
=8
8.g
16a
4cc}
=9
{8.g
16a
8g
8a
=10
8cc
16a
16cc
16dd
16ff
8a
=11
*M3/4
16g
16a
16g
16f
8f
4d
8f
=12
*M2/4
8g
16g
16f
8g
8cc
=13
16cc
16a
4g
8a}
=14
{16f
16g
16f
16d
16c
16d
16f
16g
=15
2d}
=16
{8.g
16f
8g
8b-
=17
16g
16a
16g
16f
8g
8b-
=18
*M3/4
16g
16a
16g
16f
8f
4d
8f
=19
*M2/4
8g
16g
16f
8g
8cc
=20
16cc
16a
4g
8a}
=21
{16f
16g
16f
16d
16c
16d
16f
16g
=22
2d}
==
!!!AGN: Xiaodiao
!! Hui
!!!ONB: ESAC (Essen Associative Code) Database: SENGANSU
!!!AMT: irregular
!!!AIN: vox
!!!EED: Helmut Schaffrath
!!!EEV: 1.0
*-
!!!ONB: Tied note syntax fixed by Craig Sapp, 2004/05/03/
